images/255917.svg

<?xml version="1.0" encoding="UTF-8"?>
<svg xmlns="http://www.w3.org/2000/svg" xmlns:xlink="http://www.w3.org/1999/xlink" width="300pt" height="300pt" viewBox="0 0 300 300" version="1.1">
<defs>
<g>
<symbol overflow="visible" id="glyph0-0">
<path style="stroke:none;" d="M 0.453125 1.59375 L 0.453125 -6.34375 L 4.953125 -6.34375 L 4.953125 1.59375 Z M 0.953125 1.09375 L 4.453125 1.09375 L 4.453125 -5.84375 L 0.953125 -5.84375 Z M 0.953125 1.09375 "/>
</symbol>
<symbol overflow="visible" id="glyph0-1">
<path style="stroke:none;" d="M 0.890625 -6.5625 L 4.65625 -6.5625 L 4.65625 -5.8125 L 1.765625 -5.8125 L 1.765625 -3.875 L 4.375 -3.875 L 4.375 -3.140625 L 1.765625 -3.140625 L 1.765625 0 L 0.890625 0 Z M 0.890625 -6.5625 "/>
</symbol>
<symbol overflow="visible" id="glyph0-2">
<path style="stroke:none;" d="M 0.890625 -6.5625 L 2.078125 -6.5625 L 4.984375 -1.078125 L 4.984375 -6.5625 L 5.84375 -6.5625 L 5.84375 0 L 4.65625 0 L 1.75 -5.484375 L 1.75 0 L 0.890625 0 Z M 0.890625 -6.5625 "/>
</symbol>
<symbol overflow="visible" id="glyph0-3">
<path style="stroke:none;" d="M 0.890625 -6.5625 L 1.765625 -6.5625 L 1.765625 -3.875 L 5 -3.875 L 5 -6.5625 L 5.890625 -6.5625 L 5.890625 0 L 5 0 L 5 -3.125 L 1.765625 -3.125 L 1.765625 0 L 0.890625 0 Z M 0.890625 -6.5625 "/>
</symbol>
<symbol overflow="visible" id="glyph0-4">
<path style="stroke:none;" d="M 3.546875 -5.953125 C 2.898438 -5.953125 2.382812 -5.710938 2 -5.234375 C 1.625 -4.753906 1.4375 -4.101562 1.4375 -3.28125 C 1.4375 -2.445312 1.625 -1.789062 2 -1.3125 C 2.382812 -0.832031 2.898438 -0.59375 3.546875 -0.59375 C 4.191406 -0.59375 4.703125 -0.832031 5.078125 -1.3125 C 5.453125 -1.789062 5.640625 -2.445312 5.640625 -3.28125 C 5.640625 -4.101562 5.453125 -4.753906 5.078125 -5.234375 C 4.703125 -5.710938 4.191406 -5.953125 3.546875 -5.953125 Z M 3.546875 -6.6875 C 4.460938 -6.6875 5.195312 -6.375 5.75 -5.75 C 6.300781 -5.132812 6.578125 -4.3125 6.578125 -3.28125 C 6.578125 -2.238281 6.300781 -1.410156 5.75 -0.796875 C 5.195312 -0.179688 4.460938 0.125 3.546875 0.125 C 2.617188 0.125 1.878906 -0.179688 1.328125 -0.796875 C 0.773438 -1.410156 0.5 -2.238281 0.5 -3.28125 C 0.5 -4.3125 0.773438 -5.132812 1.328125 -5.75 C 1.878906 -6.375 2.617188 -6.6875 3.546875 -6.6875 Z M 3.546875 -6.6875 "/>
</symbol>
</g>
</defs>
<g id="surface24673">
<rect x="0" y="0" width="300" height="300" style="fill:rgb(100%,100%,100%);fill-opacity:1;stroke:none;"/>
<path style="fill:none;stroke-width:1.2;stroke-linecap:butt;stroke-linejoin:miter;stroke:rgb(20%,80%,80%);stroke-opacity:1;stroke-miterlimit:10;" d="M 102.855469 201.960938 L 105.421875 192.191406 "/>
<path style="fill:none;stroke-width:1.2;stroke-linecap:butt;stroke-linejoin:miter;stroke:rgb(0%,0%,0%);stroke-opacity:1;stroke-miterlimit:10;" d="M 105.421875 192.191406 L 107.988281 182.421875 "/>
<path style=" stroke:none;fill-rule:nonzero;fill:rgb(100%,100%,100%);fill-opacity:1;" d="M 99.855469 196.460938 L 105.855469 196.460938 L 105.855469 207.460938 L 99.855469 207.460938 Z M 99.855469 196.460938 "/>
<g style="fill:rgb(20%,80%,80%);fill-opacity:1;">
  <use xlink:href="#glyph0-1" x="99.855469" y="205.124023"/>
</g>
<path style="fill:none;stroke-width:1.2;stroke-linecap:butt;stroke-linejoin:miter;stroke:rgb(0%,0%,0%);stroke-opacity:1;stroke-miterlimit:10;" d="M 107.988281 182.421875 L 93.632812 168.210938 "/>
<path style="fill:none;stroke-width:1.2;stroke-linecap:butt;stroke-linejoin:miter;stroke:rgb(0%,0%,0%);stroke-opacity:1;stroke-miterlimit:10;" d="M 109.894531 177.625 L 98.410156 166.257812 "/>
<path style="fill:none;stroke-width:1.2;stroke-linecap:butt;stroke-linejoin:miter;stroke:rgb(0%,0%,0%);stroke-opacity:1;stroke-miterlimit:10;" d="M 127.472656 177.097656 L 107.988281 182.421875 "/>
<path style="fill:none;stroke-width:1.2;stroke-linecap:butt;stroke-linejoin:miter;stroke:rgb(0%,0%,0%);stroke-opacity:1;stroke-miterlimit:10;" d="M 93.632812 168.210938 L 98.761719 148.675781 "/>
<path style="fill:none;stroke-width:1.2;stroke-linecap:butt;stroke-linejoin:miter;stroke:rgb(0%,0%,0%);stroke-opacity:1;stroke-miterlimit:10;" d="M 98.761719 148.675781 L 118.246094 143.351562 "/>
<path style="fill:none;stroke-width:1.2;stroke-linecap:butt;stroke-linejoin:miter;stroke:rgb(0%,0%,0%);stroke-opacity:1;stroke-miterlimit:10;" d="M 101.964844 152.726562 L 117.550781 148.46875 "/>
<path style="fill:none;stroke-width:1.2;stroke-linecap:butt;stroke-linejoin:miter;stroke:rgb(0%,0%,0%);stroke-opacity:1;stroke-miterlimit:10;" d="M 98.761719 148.675781 L 84.410156 134.464844 "/>
<path style="fill:none;stroke-width:1.2;stroke-linecap:butt;stroke-linejoin:miter;stroke:rgb(0%,0%,0%);stroke-opacity:1;stroke-miterlimit:10;" d="M 118.246094 143.351562 L 132.601562 157.5625 "/>
<path style="fill:none;stroke-width:1.2;stroke-linecap:butt;stroke-linejoin:miter;stroke:rgb(0%,0%,0%);stroke-opacity:1;stroke-miterlimit:10;" d="M 132.601562 157.5625 L 152.085938 152.238281 "/>
<path style="fill:none;stroke-width:1.2;stroke-linecap:butt;stroke-linejoin:miter;stroke:rgb(0%,0%,0%);stroke-opacity:1;stroke-miterlimit:10;" d="M 132.601562 157.5625 L 127.472656 177.097656 "/>
<path style="fill:none;stroke-width:1.2;stroke-linecap:butt;stroke-linejoin:miter;stroke:rgb(0%,0%,0%);stroke-opacity:1;stroke-miterlimit:10;" d="M 127.492188 158.308594 L 123.386719 173.9375 "/>
<path style="fill:none;stroke-width:1.2;stroke-linecap:butt;stroke-linejoin:miter;stroke:rgb(0%,0%,0%);stroke-opacity:1;stroke-miterlimit:10;" d="M 152.085938 152.238281 L 157.214844 132.699219 "/>
<path style="fill:none;stroke-width:1.2;stroke-linecap:butt;stroke-linejoin:miter;stroke:rgb(0%,0%,0%);stroke-opacity:1;stroke-miterlimit:10;" d="M 157.195312 151.492188 L 161.300781 135.863281 "/>
<path style="fill:none;stroke-width:1.2;stroke-linecap:butt;stroke-linejoin:miter;stroke:rgb(0%,0%,0%);stroke-opacity:1;stroke-miterlimit:10;" d="M 166.441406 166.449219 L 152.085938 152.238281 "/>
<path style="fill:none;stroke-width:1.2;stroke-linecap:butt;stroke-linejoin:miter;stroke:rgb(0%,0%,0%);stroke-opacity:1;stroke-miterlimit:10;" d="M 157.214844 132.699219 L 176.699219 127.375 "/>
<path style="fill:none;stroke-width:1.2;stroke-linecap:butt;stroke-linejoin:miter;stroke:rgb(0%,0%,0%);stroke-opacity:1;stroke-miterlimit:10;" d="M 176.699219 127.375 L 181.242188 118.355469 "/>
<path style="fill:none;stroke-width:1.2;stroke-linecap:butt;stroke-linejoin:miter;stroke:rgb(0%,0%,100%);stroke-opacity:1;stroke-miterlimit:10;" d="M 181.242188 118.355469 L 185.78125 109.332031 "/>
<path style="fill:none;stroke-width:1.2;stroke-linecap:butt;stroke-linejoin:miter;stroke:rgb(0%,0%,0%);stroke-opacity:1;stroke-miterlimit:10;" d="M 191.054688 141.585938 L 176.699219 127.375 "/>
<path style="fill:none;stroke-width:1.2;stroke-linecap:butt;stroke-linejoin:miter;stroke:rgb(0%,0%,0%);stroke-opacity:1;stroke-miterlimit:10;" d="M 186.273438 143.542969 L 174.792969 132.175781 "/>
<path style="fill:none;stroke-width:1.2;stroke-linecap:butt;stroke-linejoin:miter;stroke:rgb(0%,0%,100%);stroke-opacity:1;stroke-miterlimit:10;" d="M 185.78125 109.332031 L 195.765625 110.863281 "/>
<path style="fill:none;stroke-width:1.2;stroke-linecap:butt;stroke-linejoin:miter;stroke:rgb(0%,0%,0%);stroke-opacity:1;stroke-miterlimit:10;" d="M 195.765625 110.863281 L 205.746094 112.394531 "/>
<path style=" stroke:none;fill-rule:nonzero;fill:rgb(100%,100%,100%);fill-opacity:1;" d="M 178.78125 103.832031 L 192.78125 103.832031 L 192.78125 114.832031 L 178.78125 114.832031 Z M 178.78125 103.832031 "/>
<g style="fill:rgb(0%,0%,100%);fill-opacity:1;">
  <use xlink:href="#glyph0-2" x="178.78125" y="112.495117"/>
  <use xlink:href="#glyph0-3" x="185.758789" y="112.495117"/>
</g>
<path style="fill:none;stroke-width:1.2;stroke-linecap:butt;stroke-linejoin:miter;stroke:rgb(0%,0%,0%);stroke-opacity:1;stroke-miterlimit:10;" d="M 207.4375 114.066406 L 214.542969 106.886719 "/>
<path style="fill:none;stroke-width:1.2;stroke-linecap:butt;stroke-linejoin:miter;stroke:rgb(100%,0%,0%);stroke-opacity:1;stroke-miterlimit:10;" d="M 214.542969 106.886719 L 221.648438 99.710938 "/>
<path style="fill:none;stroke-width:1.2;stroke-linecap:butt;stroke-linejoin:miter;stroke:rgb(0%,0%,0%);stroke-opacity:1;stroke-miterlimit:10;" d="M 204.058594 110.722656 L 211.164062 103.542969 "/>
<path style="fill:none;stroke-width:1.2;stroke-linecap:butt;stroke-linejoin:miter;stroke:rgb(100%,0%,0%);stroke-opacity:1;stroke-miterlimit:10;" d="M 211.164062 103.542969 L 218.269531 96.367188 "/>
<path style="fill:none;stroke-width:1.2;stroke-linecap:butt;stroke-linejoin:miter;stroke:rgb(0%,0%,0%);stroke-opacity:1;stroke-miterlimit:10;" d="M 205.746094 112.394531 L 209.007812 132.328125 "/>
<path style=" stroke:none;fill-rule:nonzero;fill:rgb(100%,100%,100%);fill-opacity:1;" d="M 215.957031 92.539062 L 223.957031 92.539062 L 223.957031 103.539062 L 215.957031 103.539062 Z M 215.957031 92.539062 "/>
<g style="fill:rgb(100%,0%,0%);fill-opacity:1;">
  <use xlink:href="#glyph0-4" x="215.957031" y="101.202148"/>
</g>
<path style="fill:none;stroke-width:1.2;stroke-linecap:butt;stroke-linejoin:miter;stroke:rgb(0%,0%,0%);stroke-opacity:1;stroke-miterlimit:10;" d="M 209.007812 132.328125 L 210.164062 152.492188 "/>
<path style="fill:none;stroke-width:1.2;stroke-linecap:butt;stroke-linejoin:miter;stroke:rgb(0%,0%,0%);stroke-opacity:1;stroke-miterlimit:10;" d="M 209.007812 132.328125 L 191.054688 141.585938 "/>
<path style="fill:none;stroke-width:1.2;stroke-linecap:butt;stroke-linejoin:miter;stroke:rgb(0%,0%,0%);stroke-opacity:1;stroke-miterlimit:10;" d="M 225.890625 121.242188 L 209.007812 132.328125 "/>
<path style="fill:none;stroke-width:1.2;stroke-linecap:butt;stroke-linejoin:miter;stroke:rgb(0%,0%,0%);stroke-opacity:1;stroke-miterlimit:10;" d="M 210.164062 152.492188 L 228.207031 161.574219 "/>
<path style="fill:none;stroke-width:1.2;stroke-linecap:butt;stroke-linejoin:miter;stroke:rgb(0%,0%,0%);stroke-opacity:1;stroke-miterlimit:10;" d="M 228.207031 161.574219 L 245.089844 150.488281 "/>
<path style="fill:none;stroke-width:1.2;stroke-linecap:butt;stroke-linejoin:miter;stroke:rgb(0%,0%,0%);stroke-opacity:1;stroke-miterlimit:10;" d="M 245.089844 150.488281 L 249.085938 159.765625 "/>
<path style="fill:none;stroke-width:1.2;stroke-linecap:butt;stroke-linejoin:miter;stroke:rgb(100%,0%,0%);stroke-opacity:1;stroke-miterlimit:10;" d="M 249.085938 159.765625 L 253.078125 169.042969 "/>
<path style="fill:none;stroke-width:1.2;stroke-linecap:butt;stroke-linejoin:miter;stroke:rgb(0%,0%,0%);stroke-opacity:1;stroke-miterlimit:10;" d="M 245.089844 150.488281 L 243.933594 130.324219 "/>
<path style="fill:none;stroke-width:1.2;stroke-linecap:butt;stroke-linejoin:miter;stroke:rgb(0%,0%,0%);stroke-opacity:1;stroke-miterlimit:10;" d="M 245.089844 150.488281 L 264.75 145.847656 "/>
<path style=" stroke:none;fill-rule:nonzero;fill:rgb(100%,100%,100%);fill-opacity:1;" d="M 246.078125 163.542969 L 261.078125 163.542969 L 261.078125 174.542969 L 246.078125 174.542969 Z M 246.078125 163.542969 "/>
<g style="fill:rgb(100%,0%,0%);fill-opacity:1;">
  <use xlink:href="#glyph0-4" x="246.078125" y="172.206055"/>
  <use xlink:href="#glyph0-3" x="253.419922" y="172.206055"/>
</g>
<path style="fill:none;stroke-width:1.2;stroke-linecap:butt;stroke-linejoin:miter;stroke:rgb(0%,0%,0%);stroke-opacity:1;stroke-miterlimit:10;" d="M 243.933594 130.324219 L 225.890625 121.242188 "/>
<path style="fill:none;stroke-width:1.2;stroke-linecap:butt;stroke-linejoin:miter;stroke:rgb(0%,0%,0%);stroke-opacity:1;stroke-miterlimit:10;" d="M 191.054688 141.585938 L 185.925781 161.125 "/>
<path style="fill:none;stroke-width:1.2;stroke-linecap:butt;stroke-linejoin:miter;stroke:rgb(0%,0%,0%);stroke-opacity:1;stroke-miterlimit:10;" d="M 185.925781 161.125 L 166.441406 166.449219 "/>
<path style="fill:none;stroke-width:1.2;stroke-linecap:butt;stroke-linejoin:miter;stroke:rgb(0%,0%,0%);stroke-opacity:1;stroke-miterlimit:10;" d="M 182.722656 157.070312 L 167.136719 161.332031 "/>
<path style="fill:none;stroke-width:1.2;stroke-linecap:butt;stroke-linejoin:miter;stroke:rgb(0%,0%,0%);stroke-opacity:1;stroke-miterlimit:10;" d="M 127.472656 177.097656 L 141.824219 191.308594 "/>
<path style="fill:none;stroke-width:1.2;stroke-linecap:butt;stroke-linejoin:miter;stroke:rgb(0%,0%,0%);stroke-opacity:1;stroke-miterlimit:10;" d="M 84.410156 134.464844 L 74.441406 136.09375 "/>
<path style="fill:none;stroke-width:1.2;stroke-linecap:butt;stroke-linejoin:miter;stroke:rgb(0%,0%,100%);stroke-opacity:1;stroke-miterlimit:10;" d="M 74.441406 136.09375 L 64.476562 137.722656 "/>
<path style="fill:none;stroke-width:1.2;stroke-linecap:butt;stroke-linejoin:miter;stroke:rgb(0%,0%,100%);stroke-opacity:1;stroke-miterlimit:10;" d="M 87.46875 114.5 L 85.941406 124.480469 "/>
<path style="fill:none;stroke-width:1.2;stroke-linecap:butt;stroke-linejoin:miter;stroke:rgb(0%,0%,0%);stroke-opacity:1;stroke-miterlimit:10;" d="M 85.941406 124.480469 L 84.410156 134.464844 "/>
<path style="fill:none;stroke-width:1.2;stroke-linecap:butt;stroke-linejoin:miter;stroke:rgb(0%,0%,100%);stroke-opacity:1;stroke-miterlimit:10;" d="M 82.464844 115.773438 L 81.242188 123.761719 "/>
<path style="fill:none;stroke-width:1.2;stroke-linecap:butt;stroke-linejoin:miter;stroke:rgb(0%,0%,0%);stroke-opacity:1;stroke-miterlimit:10;" d="M 81.242188 123.761719 L 80.019531 131.746094 "/>
<path style="fill:none;stroke-width:1.2;stroke-linecap:butt;stroke-linejoin:miter;stroke:rgb(0%,0%,100%);stroke-opacity:1;stroke-miterlimit:10;" d="M 64.476562 137.722656 L 59.84375 128.746094 "/>
<path style="fill:none;stroke-width:1.2;stroke-linecap:butt;stroke-linejoin:miter;stroke:rgb(0%,0%,0%);stroke-opacity:1;stroke-miterlimit:10;" d="M 59.84375 128.746094 L 55.214844 119.773438 "/>
<path style=" stroke:none;fill-rule:nonzero;fill:rgb(100%,100%,100%);fill-opacity:1;" d="M 57.476562 132.222656 L 71.476562 132.222656 L 71.476562 143.222656 L 57.476562 143.222656 Z M 57.476562 132.222656 "/>
<g style="fill:rgb(0%,0%,100%);fill-opacity:1;">
  <use xlink:href="#glyph0-2" x="57.476562" y="140.885742"/>
  <use xlink:href="#glyph0-3" x="64.454102" y="140.885742"/>
</g>
<path style="fill:none;stroke-width:1.2;stroke-linecap:butt;stroke-linejoin:miter;stroke:rgb(0%,0%,0%);stroke-opacity:1;stroke-miterlimit:10;" d="M 55.214844 119.773438 L 62.320312 112.59375 "/>
<path style="fill:none;stroke-width:1.2;stroke-linecap:butt;stroke-linejoin:miter;stroke:rgb(0%,0%,100%);stroke-opacity:1;stroke-miterlimit:10;" d="M 62.320312 112.59375 L 69.425781 105.417969 "/>
<path style="fill:none;stroke-width:1.2;stroke-linecap:butt;stroke-linejoin:miter;stroke:rgb(0%,0%,0%);stroke-opacity:1;stroke-miterlimit:10;" d="M 60.015625 121.679688 L 65.699219 115.9375 "/>
<path style="fill:none;stroke-width:1.2;stroke-linecap:butt;stroke-linejoin:miter;stroke:rgb(0%,0%,100%);stroke-opacity:1;stroke-miterlimit:10;" d="M 65.699219 115.9375 L 71.382812 110.199219 "/>
<path style="fill:none;stroke-width:1.2;stroke-linecap:butt;stroke-linejoin:miter;stroke:rgb(0%,0%,0%);stroke-opacity:1;stroke-miterlimit:10;" d="M 55.214844 119.773438 L 35.25 116.710938 "/>
<path style="fill:none;stroke-width:1.2;stroke-linecap:butt;stroke-linejoin:miter;stroke:rgb(0%,0%,100%);stroke-opacity:1;stroke-miterlimit:10;" d="M 69.425781 105.417969 L 87.46875 114.5 "/>
<path style=" stroke:none;fill-rule:nonzero;fill:rgb(100%,100%,100%);fill-opacity:1;" d="M 66.425781 99.917969 L 73.425781 99.917969 L 73.425781 110.917969 L 66.425781 110.917969 Z M 66.425781 99.917969 "/>
<g style="fill:rgb(0%,0%,100%);fill-opacity:1;">
  <use xlink:href="#glyph0-2" x="66.425781" y="108.581055"/>
</g>
<path style=" stroke:none;fill-rule:nonzero;fill:rgb(100%,100%,100%);fill-opacity:1;" d="M 84.46875 109 L 91.46875 109 L 91.46875 120 L 84.46875 120 Z M 84.46875 109 "/>
<g style="fill:rgb(0%,0%,100%);fill-opacity:1;">
  <use xlink:href="#glyph0-2" x="84.46875" y="117.663086"/>
</g>
</g>
</svg>

<svg xmlns="http://www.w3.org/2000/svg" xmlns:xlink="http://www.w3.org/1999/xlink" width="300pt" height="300pt" viewBox="0 0 300 300"><defs><symbol overflow="visible"><path d="M.453 1.594v-7.938h4.5v7.938zm.5-.5h3.5v-6.938h-3.5zm0 0"/></symbol><symbol overflow="visible" id="a"><path d="M.89-6.563h3.766v.75h-2.89v1.938h2.61v.734h-2.61V0H.89zm0 0"/></symbol><symbol overflow="visible" id="b"><path d="M.89-6.563H2.08l2.906 5.485v-5.484h.86V0H4.656L1.75-5.484V0H.89zm0 0"/></symbol><symbol overflow="visible" id="c"><path d="M.89-6.563h.876v2.688H5v-2.688h.89V0H5v-3.125H1.766V0H.89zm0 0"/></symbol><symbol overflow="visible" id="d"><path d="M3.547-5.953c-.65 0-1.164.242-1.547.72-.375.48-.563 1.13-.563 1.952 0 .835.188 1.49.563 1.967.383.48.898.72 1.547.72.644 0 1.156-.24 1.53-.72.376-.476.564-1.132.564-1.968 0-.822-.187-1.474-.562-1.954-.375-.477-.887-.72-1.53-.72zm0-.734c.914 0 1.648.312 2.203.937.55.617.828 1.438.828 2.47 0 1.042-.277 1.87-.828 2.483-.555.617-1.29.922-2.203.922-.93 0-1.668-.305-2.22-.922C.774-1.41.5-2.237.5-3.28c0-1.033.273-1.853.828-2.47.55-.625 1.29-.938 2.22-.938zm0 0"/></symbol></defs><g><path fill="#fff" d="M0 0h300v300H0z"/><path d="M102.855 201.96l2.567-9.77" stroke-width="1.2" stroke="#3cc" stroke-miterlimit="10" fill="none"/><path d="M105.422 192.19l2.566-9.768" stroke-width="1.2" stroke="#000" stroke-miterlimit="10" fill="none"/><path d="M99.855 196.46h6v11h-6zm0 0" fill="#fff"/><use xlink:href="#a" x="99.855" y="205.124" fill="#3cc"/><path d="M107.988 182.422l-14.355-14.21M109.895 177.625L98.41 166.258M127.473 177.098l-19.485 5.324M93.633 168.21l5.13-19.534M98.762 148.676l19.484-5.324M101.965 152.727l15.586-4.258M98.762 148.676l-14.352-14.21M118.246 143.352l14.356 14.21M132.602 157.563l19.484-5.325M132.602 157.563l-5.13 19.535M127.492 158.31l-4.105 15.627M152.086 152.238l5.13-19.54M157.195 151.492l4.106-15.63M166.44 166.45l-14.354-14.212M157.215 132.7l19.484-5.325M176.7 127.375l4.542-9.02" stroke-width="1.2" stroke="#000" stroke-miterlimit="10" fill="none"/><path d="M181.242 118.355l4.54-9.023" stroke-width="1.2" stroke="#00f" stroke-miterlimit="10" fill="none"/><path d="M191.055 141.586l-14.356-14.21M186.273 143.543l-11.48-11.367" stroke-width="1.2" stroke="#000" stroke-miterlimit="10" fill="none"/><path d="M185.78 109.332l9.986 1.53" stroke-width="1.2" stroke="#00f" stroke-miterlimit="10" fill="none"/><path d="M195.766 110.863l9.98 1.532" stroke-width="1.2" stroke="#000" stroke-miterlimit="10" fill="none"/><path d="M178.78 103.832h14v11h-14zm0 0" fill="#fff"/><g fill="#00f"><use xlink:href="#b" x="178.781" y="112.495"/><use xlink:href="#c" x="185.759" y="112.495"/></g><path d="M207.438 114.066l7.105-7.18" stroke-width="1.2" stroke="#000" stroke-miterlimit="10" fill="none"/><path d="M214.543 106.887l7.105-7.176" stroke-width="1.2" stroke="#f00" stroke-miterlimit="10" fill="none"/><path d="M204.06 110.723l7.104-7.18" stroke-width="1.2" stroke="#000" stroke-miterlimit="10" fill="none"/><path d="M211.164 103.543l7.106-7.176" stroke-width="1.2" stroke="#f00" stroke-miterlimit="10" fill="none"/><path d="M205.746 112.395l3.262 19.933" stroke-width="1.2" stroke="#000" stroke-miterlimit="10" fill="none"/><path d="M215.957 92.54h8v11h-8zm0 0" fill="#fff"/><use xlink:href="#d" x="215.957" y="101.202" fill="#f00"/><path d="M209.008 132.328l1.156 20.164M209.008 132.328l-17.953 9.258M225.89 121.242l-16.882 11.086M210.164 152.492l18.043 9.082M228.207 161.574l16.883-11.086M245.09 150.488l3.996 9.278" stroke-width="1.2" stroke="#000" stroke-miterlimit="10" fill="none"/><path d="M249.086 159.766l3.992 9.277" stroke-width="1.2" stroke="#f00" stroke-miterlimit="10" fill="none"/><path d="M245.09 150.488l-1.156-20.164M245.09 150.488l19.66-4.64" stroke-width="1.2" stroke="#000" stroke-miterlimit="10" fill="none"/><path d="M246.078 163.543h15v11h-15zm0 0" fill="#fff"/><g fill="#f00"><use xlink:href="#d" x="246.078" y="172.206"/><use xlink:href="#c" x="253.42" y="172.206"/></g><path d="M243.934 130.324l-18.043-9.082M191.055 141.586l-5.13 19.54M185.926 161.125l-19.485 5.324M182.723 157.07l-15.586 4.262M127.473 177.098l14.35 14.21M84.41 134.465l-9.97 1.63" stroke-width="1.2" stroke="#000" stroke-miterlimit="10" fill="none"/><path d="M74.44 136.094l-9.963 1.63M87.47 114.5l-1.53 9.98" stroke-width="1.2" stroke="#00f" stroke-miterlimit="10" fill="none"/><path d="M85.94 124.48l-1.53 9.985" stroke-width="1.2" stroke="#000" stroke-miterlimit="10" fill="none"/><path d="M82.465 115.773l-1.223 7.99" stroke-width="1.2" stroke="#00f" stroke-miterlimit="10" fill="none"/><path d="M81.242 123.762l-1.222 7.984" stroke-width="1.2" stroke="#000" stroke-miterlimit="10" fill="none"/><path d="M64.477 137.723l-4.633-8.977" stroke-width="1.2" stroke="#00f" stroke-miterlimit="10" fill="none"/><path d="M59.844 128.746l-4.63-8.973" stroke-width="1.2" stroke="#000" stroke-miterlimit="10" fill="none"/><path d="M57.477 132.223h14v11h-14zm0 0" fill="#fff"/><g fill="#00f"><use xlink:href="#b" x="57.477" y="140.886"/><use xlink:href="#c" x="64.454" y="140.886"/></g><path d="M55.215 119.773l7.105-7.18" stroke-width="1.2" stroke="#000" stroke-miterlimit="10" fill="none"/><path d="M62.32 112.594l7.106-7.176" stroke-width="1.2" stroke="#00f" stroke-miterlimit="10" fill="none"/><path d="M60.016 121.68l5.683-5.743" stroke-width="1.2" stroke="#000" stroke-miterlimit="10" fill="none"/><path d="M65.7 115.938l5.683-5.74" stroke-width="1.2" stroke="#00f" stroke-miterlimit="10" fill="none"/><path d="M55.215 119.773L35.25 116.71" stroke-width="1.2" stroke="#000" stroke-miterlimit="10" fill="none"/><path d="M69.426 105.418L87.47 114.5" stroke-width="1.2" stroke="#00f" stroke-miterlimit="10" fill="none"/><path d="M66.426 99.918h7v11h-7zm0 0" fill="#fff"/><use xlink:href="#b" x="66.426" y="108.581" fill="#00f"/><path d="M84.47 109h7v11h-7zm0 0" fill="#fff"/><use xlink:href="#b" x="84.469" y="117.663" fill="#00f"/></g></svg>
